pc/_inc/system.svg

<svg xmlns="http://www.w3.org/2000/svg" width="566.929" height="226.773" xml:space="preserve"><path fill="#1F70C1" d="M0 0v15.517h110.352V0H0zm125.986 0v15.517h157.257S267.179 0 245.905 0H125.986zm188.105 0v15.517h95.139L403.583 0h-89.492zm163.348 0-5.646 15.517h94.273V0h-88.627zM0 30.173V45.69h110.352V30.173H0zm125.986.022v15.493h175.506s-2.052-11.941-5.625-15.493H125.986zm188.105 0v15.493h105.57l-5.229-15.493H314.091zm152.053 0-5.227 15.493h105.146V30.195h-99.919zM31.712 60.346v15.535h47.791V60.346H31.712zm125.987 0v15.535h47.79V60.346h-47.79zm94.275 0v15.535h47.79s3.034-8.205 3.034-15.535h-50.824zm93.83 0v15.535h84.73l-5.648-15.535h-79.082zm109.932 0-5.67 15.535h85.15V60.346h-79.48zM31.712 90.542v15.517h47.791V90.542H31.712zm125.987 0v15.517h122.067s10.211-7.961 13.465-15.517H157.699zm188.105 0v15.517h47.791V97.42l3.033 8.638h87.543l3.256-8.638v8.638h47.789V90.542h-89.711l-4.762 13.144-4.783-13.144h-90.156zM31.712 120.715v15.517h47.791v-15.517H31.712zm125.987 0v15.517h135.533c-3.256-7.529-13.465-15.517-13.465-15.517H157.699zm188.105 0v15.517h47.791v-15.517h-47.791zm56.473 0 5.779 15.517h65.641l5.492-15.517h-76.912zm85.15 0v15.517h47.789v-15.517h-47.789zM31.712 150.888v15.515h47.791v-15.515H31.712zm125.987 0v15.515h47.79v-15.515h-47.79zm94.275 0v15.515h50.824c0-7.322-3.034-15.515-3.034-15.515h-47.79zm93.83 0v15.515h47.791v-15.515h-47.791zm67.324 0 5.602 15.515h44.006l5.645-15.515h-55.253zm74.299 0v15.515h47.789v-15.515h-47.789zM.863 181.063V196.6h110.353v-15.537H.863zm125.123 0V196.6h169.881c3.573-3.561 5.625-15.537 5.625-15.537H125.986zm188.971 0V196.6h78.641v-15.537h-78.641zm109.044 0 5.758 15.537h22.389l5.404-15.537h-33.551zm63.426 0V196.6h79.502v-15.537h-79.502zM.863 211.257v15.517h110.353v-15.517H.863zm125.123 0v15.493h119.919c21.275 0 37.338-15.493 37.338-15.493H125.986zm188.971 0v15.517h78.641v-15.517h-78.641zm119.962 0 5.535 15.474.953.021 5.625-15.493-12.113-.002zm52.508 0v15.517h79.502v-15.517h-79.502z"/></svg>

<?xml version="1.0" encoding="utf-8"?>
<!-- Generator: Adobe Illustrator 16.0.3, SVG Export Plug-In . SVG Version: 6.00 Build 0)  -->
<!DOCTYPE svg PUBLIC "-//W3C//DTD SVG 1.1//EN" "http://www.w3.org/Graphics/SVG/1.1/DTD/svg11.dtd">
<svg version="1.1" id="Ebene_1" xmlns="http://www.w3.org/2000/svg" xmlns:xlink="http://www.w3.org/1999/xlink" x="0px" y="0px"
	 width="566.929px" height="226.773px" viewBox="0 0 566.929 226.773" enable-background="new 0 0 566.929 226.773"
	 xml:space="preserve">
<path fill="#1F70C1" d="M0,0v15.517h110.352V0H0z M125.986,0v15.517h157.257c0,0-16.064-15.517-37.338-15.517H125.986z M314.091,0
	v15.517h95.139L403.583,0H314.091z M477.439,0l-5.646,15.517h94.273V0H477.439z M0,30.173V45.69h110.352V30.173H0z M125.986,30.195
	v15.493h175.506c0,0-2.052-11.941-5.625-15.493H125.986z M314.091,30.195v15.493h105.57l-5.229-15.493H314.091z M466.144,30.195
	l-5.227,15.493h105.146V30.195H466.144z M31.712,60.346v15.535h47.791V60.346H31.712z M157.699,60.346v15.535h47.79V60.346H157.699z
	 M251.974,60.346v15.535h47.79c0,0,3.034-8.205,3.034-15.535H251.974z M345.804,60.346v15.535h84.73l-5.648-15.535H345.804z
	 M455.736,60.346l-5.67,15.535h85.15V60.346H455.736z M31.712,90.542v15.517h47.791V90.542H31.712z M157.699,90.542v15.517h122.067
	c0,0,10.211-7.961,13.465-15.517H157.699z M345.804,90.542v15.517h47.791V97.42l3.033,8.638h87.543l3.256-8.638v8.638h47.789V90.542
	h-89.711l-4.762,13.144l-4.783-13.144H345.804z M31.712,120.715v15.517h47.791v-15.517H31.712z M157.699,120.715v15.517h135.533
	c-3.256-7.529-13.465-15.517-13.465-15.517H157.699z M345.804,120.715v15.517h47.791v-15.517H345.804z M402.277,120.715
	l5.779,15.517h65.641l5.492-15.517H402.277z M487.427,120.715v15.517h47.789v-15.517H487.427z M31.712,150.888v15.515h47.791
	v-15.515H31.712z M157.699,150.888v15.515h47.79v-15.515H157.699z M251.974,150.888v15.515h50.824
	c0-7.322-3.034-15.515-3.034-15.515H251.974z M345.804,150.888v15.515h47.791v-15.515H345.804z M413.128,150.888l5.602,15.515
	h44.006l5.645-15.515H413.128z M487.427,150.888v15.515h47.789v-15.515H487.427z M0.863,181.063V196.6h110.353v-15.537H0.863z
	 M125.986,181.063V196.6h169.881c3.573-3.561,5.625-15.537,5.625-15.537H125.986z M314.957,181.063V196.6h78.641v-15.537H314.957z
	 M424.001,181.063l5.758,15.537h22.389l5.404-15.537H424.001z M487.427,181.063V196.6h79.502v-15.537H487.427z M0.863,211.257
	v15.517h110.353v-15.517H0.863z M125.986,211.257v15.493h119.919c21.275,0,37.338-15.493,37.338-15.493H125.986z M314.957,211.257
	v15.517h78.641v-15.517H314.957z M434.919,211.257l5.535,15.474l0.953,0.021l5.625-15.493L434.919,211.257L434.919,211.257z
	 M487.427,211.257v15.517h79.502v-15.517H487.427z"/>
</svg>
